public/logos/1867/LPS.svg

<svg xmlns="http://www.w3.org/2000/svg" xmlns:xlink="http://www.w3.org/1999/xlink" viewBox="0 0 283.5 283.5"><symbol id="c" viewBox="-25.5 -25.5 51 51"><circle transform="rotate(-67.5 0 0)" fill="#009a54" r="25.5"/><path d="M-1.4 8.5v17h2.8v-17h-2.8zm5.7-17v-16.6c1 .2 1.9.4 2.8.6v16H4.3zm-5.7 0v-17h2.8v17h-2.8zm8.5 17v16c-.9.3-1.9.5-2.8.6V8.5h2.8zm-14.2-17v-16c.9-.3 1.9-.5 2.8-.6v16.6h-2.8zm2.8 17v16.6c-1-.2-1.9-.4-2.8-.6v-16h2.8z" fill="#bfc8cc"/><path d="M-8 3.2v-5.8h2.6V.1h1.7v-4.2h-7.9v1.5h1.3v5.8h-1.3v1.5h4.9V3.2H-8zM4.9 1.9C4.9.9 4.6.2 4-.2S2.5-.9 1.2-.9H.3v-1.7h1.2v-1.5h-4.7v1.5H-2v5.8h-1.1v1.5h4.3c1.2 0 2.1-.2 2.8-.7s.9-1.2.9-2.1zm-2.4 0c0 .4-.1.6-.2.8s-.4.3-.7.4-.6.1-1 .1H.3V.5h.4c.5 0 .9 0 1.1.1s.5.2.6.4.1.6.1.9zM9.6 4v.7h1.5V2H9.6c0 .5-.2.8-.4 1s-.5.3-.8.3c-.2 0-.4-.1-.6-.2s-.3-.3-.3-.5.1-.3.2-.5.2-.2.4-.3l.8-.4.4-.2C10 .9 10.6.5 11 .1s.6-1 .6-1.7c0-.8-.2-1.4-.7-1.9S9.8-4.2 9-4.2c-.8 0-1.4.2-1.8.8v-.8H5.7v3h1.5c0-.5.2-.9.4-1.2s.6-.4 1-.4c.3 0 .5.1.7.3s.2.5.2.7c0 .3-.1.5-.3.7s-.6.5-1.1.7C7.2 0 6.6.4 6.2.8s-.6 1-.6 1.6c0 .4.1.9.3 1.2s.5.7.9.9.8.3 1.2.3c.3 0 .7-.1.9-.2s.5-.4.7-.6z" fill="#fff"/></symbol><defs><path id="a" d="M280.6 141.7c0 76.7-62.2 138.9-138.9 138.9S2.8 218.4 2.8 141.7 65 2.8 141.7 2.8 280.6 65 280.6 141.7z"/></defs><clipPath id="b"><use xlink:href="#a" overflow="visible"/></clipPath><g clip-path="url(#b)"><use xlink:href="#c" width="51" height="51" x="-25.5" y="-25.5" transform="matrix(7.7777 0 0 -7.7777 139.516 139.781)" overflow="visible"/></g><use xlink:href="#a" overflow="visible" fill="none" stroke="#f3eebf" stroke-miterlimit="10"/></svg>

<?xml version="1.0" encoding="utf-8"?>
<!-- Generator: Adobe Illustrator 25.0.1, SVG Export Plug-In . SVG Version: 6.00 Build 0)  -->
<svg version="1.1" id="Layer_1" xmlns="http://www.w3.org/2000/svg" xmlns:xlink="http://www.w3.org/1999/xlink" x="0px" y="0px"
	 viewBox="0 0 283.5 283.5" style="enable-background:new 0 0 283.5 283.5;" xml:space="preserve">
<style type="text/css">
	.st0{fill:#009A54;}
	.st1{fill:#BFC8CC;}
	.st2{fill:#FFFFFF;}
</style>
<symbol  id="Nouveau_symbole_10" viewBox="-25.5 -25.5 51 51">
	
		<ellipse transform="matrix(0.3827 -0.9239 0.9239 0.3827 -4.563965e-04 3.049544e-04)" class="st0" cx="0" cy="0" rx="25.5" ry="25.5"/>
	<path class="st1" d="M-1.4,8.5v17c0.5,0,0.9,0,1.4,0c0.5,0,0.9,0,1.4,0v-17H-1.4z M4.3-8.5v-16.6c1,0.2,1.9,0.4,2.8,0.6v16H4.3z
		 M-1.4-8.5v-17c0.5,0,0.9,0,1.4,0c0.5,0,0.9,0,1.4,0v17H-1.4z M7.1,8.5v16c-0.9,0.3-1.9,0.5-2.8,0.6V8.5H7.1z M-7.1-8.5v-16
		c0.9-0.3,1.9-0.5,2.8-0.6v16.6H-7.1z M-4.3,8.5v16.6c-1-0.2-1.9-0.4-2.8-0.6v-16H-4.3z"/>
	<g>
	</g>
	<g>
		<path class="st2" d="M-8,3.2v-5.8h2.6v2.7h1.7v-4.2h-7.9v1.5h1.3v5.8h-1.3v1.5h4.9V3.2H-8z"/>
		<path class="st2" d="M4.9,1.9c0-1-0.3-1.7-0.9-2.1S2.5-0.9,1.2-0.9H0.3v-1.7h1.2v-1.5h-4.7v1.5H-2v5.8h-1.1v1.5h4.3
			C2.4,4.7,3.3,4.5,4,4S4.9,2.8,4.9,1.9z M2.5,1.9c0,0.4-0.1,0.6-0.2,0.8S1.9,3,1.6,3.1S1,3.2,0.6,3.2H0.3V0.5h0.4
			c0.5,0,0.9,0,1.1,0.1s0.5,0.2,0.6,0.4S2.5,1.6,2.5,1.9z"/>
		<path class="st2" d="M9.6,4v0.7h1.5V2H9.6C9.6,2.5,9.4,2.8,9.2,3S8.7,3.3,8.4,3.3c-0.2,0-0.4-0.1-0.6-0.2S7.5,2.8,7.5,2.6
			c0-0.2,0.1-0.3,0.2-0.5s0.2-0.2,0.4-0.3c0.2-0.1,0.4-0.2,0.8-0.4l0.4-0.2C10,0.9,10.6,0.5,11,0.1s0.6-1,0.6-1.7
			c0-0.8-0.2-1.4-0.7-1.9S9.8-4.2,9-4.2C8.2-4.2,7.6-4,7.2-3.4v-0.8H5.7v3h1.5c0-0.5,0.2-0.9,0.4-1.2s0.6-0.4,1-0.4
			c0.3,0,0.5,0.1,0.7,0.3S9.5-2,9.5-1.8c0,0.3-0.1,0.5-0.3,0.7S8.6-0.6,8.1-0.4C7.2,0,6.6,0.4,6.2,0.8S5.6,1.8,5.6,2.4
			c0,0.4,0.1,0.9,0.3,1.2s0.5,0.7,0.9,0.9S7.6,4.8,8,4.8c0.3,0,0.7-0.1,0.9-0.2S9.4,4.2,9.6,4z"/>
	</g>
</symbol>
<g>
	<defs>
		<path id="SVGID_1_" d="M280.6,141.7c0,76.7-62.2,138.9-138.9,138.9C65,280.6,2.8,218.4,2.8,141.7C2.8,65,65,2.8,141.7,2.8
			C218.4,2.8,280.6,65,280.6,141.7z"/>
	</defs>
	<clipPath id="SVGID_2_">
		<use xlink:href="#SVGID_1_"  style="overflow:visible;"/>
	</clipPath>
	<g style="clip-path:url(#SVGID_2_);">
		
			<use xlink:href="#Nouveau_symbole_10"  width="51" height="51" x="-25.5" y="-25.5" transform="matrix(7.7777 0 0 -7.7777 139.5157 139.781)" style="overflow:visible;"/>
	</g>
	<use xlink:href="#SVGID_1_"  style="overflow:visible;fill:none;stroke:#F3EEBF;stroke-miterlimit:10;"/>
</g>
</svg>
